X:3
T:Sandy Nook's March
R:march
C:Andrea Beaton
D:Andrea Beaton, Cuts
Z:Paul Stewart Cranford (P.S.C.), <http://www.cranfordpub.com>
L:1/8
M:C|
Q:288
K:Ador
a<f|e>AAAB<d|e2 A2 A2 BA|G>AB<d e<ag>e|d>cB<A G2 a<f|
e>AAAB<d|e2 A2 A2 g<e|d>BA<B G<AB<d|e2 A2 A2:|
|:Bd|e2 a<f g>fe>d|e>AABAcc<e|d>cB<A G2 B>d|
e2 a<f g>fe>d|e2 A2 A2 g<e|d>BA<B G<AB<d|e2 A2 A2:|
